X:552
T: DES ABENDS WENN ICH SCHLAFEN GEH
N: E0527B
O: Europa, Mitteleuropa, Deutschland, Siebengebirge; Hessen, Darmstadt
R: Liebes - Lied
M: 2/4
L: 1/16
K: F
C2 | F3GA2B2 | c3dc2
A2 | B2A2B2c2 | A4z2
c2 | c3AB2G2 | A3BA2
F2 | G3AB2G2 | A2d2c2
c2 | c3AB2G2 | A3BA2
F2 | G3AB2G2 | F4z2

